apps/web/src/images/integrations/logo-okta-symbol-black.svg

<svg width="600" height="600" viewBox="0 0 600 600" fill="none" xmlns="http://www.w3.org/2000/svg">
<g clip-path="url(#clip0_8112_7462)">
<path fill-rule="evenodd" clip-rule="evenodd" d="M330.104 4.16667L317.762 156.167C311.925 155.5 306.087 155.167 300.083 155.167C292.578 155.167 285.24 155.667 278.068 156.833L271.064 83.1667C270.897 80.8333 272.732 78.8333 275.066 78.8333H287.575L281.571 4.33333C281.404 2 283.239 0 285.407 0H326.268C328.603 0 330.437 2 330.104 4.33333V4.16667ZM227.034 11.6667C226.367 9.5 224.032 8.16667 221.864 9L183.504 23C181.336 23.8333 180.335 26.3333 181.336 28.3333L212.524 96.3333L200.683 100.667C198.514 101.5 197.514 104 198.514 106L230.369 172.833C241.877 166.5 254.386 161.667 267.561 158.667L227.201 11.6667H227.034ZM132.97 54L221.197 178.333C210.022 185.667 199.849 194.333 191.176 204.333L138.307 152.333C136.639 150.667 136.806 148 138.474 146.5L148.147 138.5L95.6112 85.3333C93.9434 83.6667 94.1102 81 95.9447 79.5L127.133 53.3333C128.967 51.8333 131.469 52.1667 132.803 54H132.97ZM58.9196 126C57.085 124.667 54.4165 125.333 53.2491 127.333L32.9019 162.667C31.7345 164.667 32.5684 167.167 34.5697 168.167L102.282 200.167L95.9447 211C94.7773 213 95.6112 215.667 97.7793 216.5L165.158 247.333C169.995 234.833 176.499 223.167 184.505 212.667L58.9196 126ZM9.05238 222C9.38594 219.667 11.7209 218.333 13.889 218.833L161.489 257.333C157.653 269.833 155.485 283 155.152 296.667L81.2681 290.667C78.9332 290.5 77.2654 288.333 77.7657 286L79.9339 273.667L5.38323 266.667C3.04831 266.5 1.54729 264.333 1.88085 262L8.8856 221.833L9.05238 222ZM3.54865 321.667C1.21373 321.833 -0.287293 324 0.0462667 326.333L7.2178 366.5C7.55136 368.833 9.88628 370.167 12.0544 369.667L84.4369 350.833L86.6051 363.167C86.9386 365.5 89.2735 366.833 91.4417 366.333L162.824 346.667C158.654 334.333 155.986 321.167 155.318 307.667L3.38187 321.667H3.54865ZM27.2314 427.333C26.0639 425.333 26.8978 422.833 28.8992 421.833L166.659 356.5C171.83 368.833 178.834 380.333 187.173 390.667L126.799 433.667C124.964 435 122.296 434.5 121.129 432.5L114.791 421.5L53.2491 464C51.4145 465.333 48.746 464.667 47.5786 462.667L27.0646 427.333H27.2314ZM194.178 398.667L86.9386 507.167C85.2708 508.833 85.4376 511.5 87.2722 513L118.627 539.167C120.461 540.667 122.963 540.333 124.297 538.5L167.66 477.5L177.333 485.667C179.168 487.167 181.836 486.833 183.171 484.833L225.199 423.833C213.858 416.833 203.351 408.333 194.345 398.667H194.178ZM172.997 572.833C170.829 572 169.828 569.5 170.829 567.5L234.372 428.833C246.047 434.833 258.722 439.333 271.898 441.833L253.218 513.5C252.718 515.667 250.216 517 248.048 516.167L236.207 511.833L216.36 584C215.693 586.167 213.358 587.5 211.19 586.667L172.83 572.667L172.997 572.833ZM282.405 443.667L270.063 595.667C269.896 598 271.731 600 273.899 600H314.76C317.095 600 318.93 598 318.596 595.667L312.592 521.167H325.1C327.435 521.167 329.27 519.167 329.103 516.833L322.098 443.167C314.927 444.333 307.589 444.833 300.083 444.833C294.079 444.833 288.242 444.5 282.405 443.667ZM429.505 32.1667C430.505 30 429.505 27.6667 427.337 26.8333L388.977 12.8333C386.809 12 384.474 13.3333 383.807 15.5L363.96 87.6667L352.119 83.3333C349.951 82.5 347.616 83.8333 346.949 86L328.269 157.667C341.612 160.333 354.12 164.833 365.795 170.667L429.505 32.1667ZM513.228 92.6667L405.989 201.167C396.983 191.5 386.642 183 375.134 176L417.163 115C418.497 113.167 421.166 112.667 423 114.167L432.673 122.333L476.036 61.3333C477.371 59.5 480.039 59.1667 481.707 60.6667L513.061 86.8333C514.896 88.3333 514.896 91 513.395 92.6667H513.228ZM571.268 178C573.436 177 574.103 174.5 572.935 172.5L552.422 137.167C551.254 135.167 548.586 134.667 546.751 135.833L485.209 178.333L478.872 167.5C477.704 165.5 475.036 164.833 473.201 166.333L412.827 209.333C421.166 219.667 428.004 231.167 433.341 243.5L571.101 178.167L571.268 178ZM592.949 233.333L599.954 273.5C600.287 275.833 598.786 277.833 596.451 278.167L444.515 292.333C443.848 278.667 441.179 265.667 437.01 253.333L508.392 233.667C510.56 233 512.895 234.5 513.228 236.833L515.396 249.167L587.779 230.333C589.947 229.833 592.282 231.167 592.615 233.5L592.949 233.333ZM586.111 380.833C588.279 381.333 590.614 380 590.948 377.667L597.952 337.5C598.286 335.167 596.785 333.167 594.45 332.833L519.899 325.833L522.068 313.5C522.401 311.167 520.9 309.167 518.565 308.833L444.682 302.833C444.348 316.5 442.18 329.667 438.344 342.167L585.944 380.667L586.111 380.833ZM546.751 472.5C545.584 474.5 542.915 475 541.08 473.833L415.495 387.167C423.501 376.667 430.005 365 434.842 352.5L502.221 383.333C504.389 384.333 505.223 386.833 504.055 388.833L497.718 399.667L565.43 431.667C567.432 432.667 568.266 435.167 567.098 437.167L546.751 472.5ZM378.804 421.333L467.03 545.667C468.364 547.5 471.033 547.833 472.701 546.333L503.889 520.167C505.723 518.667 505.723 516 504.222 514.333L451.686 461.167L461.36 453.167C463.194 451.667 463.194 449 461.526 447.333L408.657 395.333C399.818 405.333 389.811 414.167 378.637 421.333H378.804ZM377.97 590.667C375.802 591.5 373.467 590.167 372.799 588L332.439 441C345.614 438 358.123 433.167 369.631 426.833L401.486 493.667C402.486 495.833 401.486 498.333 399.318 499L387.476 503.333L418.664 571.333C419.665 573.5 418.664 575.833 416.496 576.667L378.136 590.667H377.97Z" fill="#191919"/>
</g>
<defs>
<clipPath id="clip0_8112_7462">
<rect width="600" height="600" fill="white"/>
</clipPath>
</defs>
</svg>

<svg width="600" height="600" fill="none" xmlns="http://www.w3.org/2000/svg"><g clip-path="url(#a)"><path fill-rule="evenodd" clip-rule="evenodd" d="m330.104 4.167-12.342 152c-5.837-.667-11.675-1-17.679-1-7.505 0-14.843.5-22.015 1.666l-7.004-73.666c-.167-2.334 1.668-4.334 4.002-4.334h12.509l-6.004-74.5C281.404 2 283.239 0 285.407 0h40.861c2.335 0 4.169 2 3.836 4.333v-.166Zm-103.07 7.5c-.667-2.167-3.002-3.5-5.17-2.667l-38.36 14c-2.168.833-3.169 3.333-2.168 5.333l31.188 68-11.841 4.334c-2.169.833-3.169 3.333-2.169 5.333l31.855 66.833a143.073 143.073 0 0 1 37.192-14.166l-40.36-147h-.167ZM132.97 54l88.227 124.333c-11.175 7.334-21.348 16-30.021 26l-52.869-52c-1.668-1.666-1.501-4.333.167-5.833l9.673-8-52.536-53.167c-1.668-1.666-1.5-4.333.334-5.833l31.188-26.167c1.834-1.5 4.336-1.166 5.67.667h.167Zm-74.05 72c-1.835-1.333-4.504-.667-5.67 1.333l-20.348 35.334c-1.168 2-.334 4.5 1.668 5.5l67.712 32L95.945 211c-1.168 2-.334 4.667 1.834 5.5l67.379 30.833c4.837-12.5 11.341-24.166 19.347-34.666L58.92 126ZM9.052 222c.334-2.333 2.669-3.667 4.837-3.167l147.6 38.5c-3.836 12.5-6.004 25.667-6.337 39.334l-73.884-6A3.85 3.85 0 0 1 77.766 286l2.168-12.333-74.55-7C3.047 266.5 1.546 264.333 1.88 262l7.005-40.167.166.167ZM3.55 321.667c-2.335.166-3.836 2.333-3.503 4.666L7.218 366.5c.333 2.333 2.668 3.667 4.836 3.167l72.383-18.834 2.168 12.334c.334 2.333 2.668 3.666 4.837 3.166l71.382-19.666c-4.17-12.334-6.838-25.5-7.506-39l-151.936 14h.167ZM27.23 427.333c-1.167-2-.333-4.5 1.668-5.5L166.66 356.5c5.171 12.333 12.175 23.833 20.514 34.167l-60.374 43c-1.835 1.333-4.503.833-5.67-1.167l-6.338-11L53.249 464c-1.835 1.333-4.503.667-5.67-1.333l-20.514-35.334h.166Zm166.947-28.666-107.24 108.5c-1.667 1.666-1.5 4.333.334 5.833l31.355 26.167c1.834 1.5 4.336 1.166 5.67-.667l43.363-61 9.673 8.167c1.835 1.5 4.503 1.166 5.838-.834l42.028-61c-11.341-7-21.848-15.5-30.854-25.166h-.167Zm-21.181 174.166c-2.168-.833-3.169-3.333-2.168-5.333l63.543-138.667c11.675 6 24.35 10.5 37.526 13l-18.68 71.667c-.5 2.167-3.002 3.5-5.17 2.667l-11.841-4.334L216.36 584c-.667 2.167-3.002 3.5-5.17 2.667l-38.36-14 .167.166Zm109.408-129.166-12.342 152c-.167 2.333 1.668 4.333 3.836 4.333h40.861c2.335 0 4.17-2 3.836-4.333l-6.004-74.5H325.1c2.335 0 4.17-2 4.003-4.334l-7.005-73.666c-7.171 1.166-14.509 1.666-22.015 1.666-6.004 0-11.841-.333-17.678-1.166Zm147.1-411.5c1-2.167 0-4.5-2.168-5.334l-38.36-14c-2.168-.833-4.503.5-5.17 2.667L363.96 87.667l-11.841-4.334c-2.168-.833-4.503.5-5.17 2.667l-18.68 71.667c13.343 2.666 25.851 7.166 37.526 13l63.71-138.5Zm83.723 60.5-107.239 108.5A145.541 145.541 0 0 0 375.134 176l42.029-61c1.334-1.833 4.003-2.333 5.837-.833l9.673 8.166 43.363-61c1.335-1.833 4.003-2.166 5.671-.666l31.354 26.166c1.835 1.5 1.835 4.167.334 5.834h-.167ZM571.268 178c2.168-1 2.835-3.5 1.667-5.5l-20.513-35.333c-1.168-2-3.836-2.5-5.671-1.334l-61.542 42.5-6.337-10.833c-1.168-2-3.836-2.667-5.671-1.167l-60.374 43c8.339 10.334 15.177 21.834 20.514 34.167l137.76-65.333.167-.167Zm21.681 55.333 7.005 40.167c.333 2.333-1.168 4.333-3.503 4.667l-151.936 14.166c-.667-13.666-3.336-26.666-7.505-39l71.382-19.666c2.168-.667 4.503.833 4.836 3.166l2.168 12.334 72.383-18.834c2.168-.5 4.503.834 4.836 3.167l.334-.167Zm-6.838 147.5c2.168.5 4.503-.833 4.837-3.166l7.004-40.167c.334-2.333-1.167-4.333-3.502-4.667l-74.551-7 2.169-12.333c.333-2.333-1.168-4.333-3.503-4.667l-73.883-6c-.334 13.667-2.502 26.834-6.338 39.334l147.6 38.5.167.166Zm-39.36 91.667c-1.167 2-3.836 2.5-5.671 1.333l-125.585-86.666c8.006-10.5 14.51-22.167 19.347-34.667l67.379 30.833c2.168 1 3.002 3.5 1.834 5.5l-6.337 10.834 67.712 32c2.002 1 2.836 3.5 1.668 5.5L546.751 472.5Zm-167.947-51.167 88.226 124.334c1.334 1.833 4.003 2.166 5.671.666l31.188-26.166c1.834-1.5 1.834-4.167.333-5.834l-52.536-53.166 9.674-8c1.834-1.5 1.834-4.167.166-5.834l-52.869-52c-8.839 10-18.846 18.834-30.02 26h.167Zm-.834 169.334c-2.168.833-4.503-.5-5.171-2.667l-40.36-147a143.04 143.04 0 0 0 37.192-14.167l31.855 66.834c1 2.166 0 4.666-2.168 5.333l-11.842 4.333 31.188 68c1.001 2.167 0 4.5-2.168 5.334l-38.36 14h-.166Z" fill="#191919"/></g><defs><clipPath id="a"><path fill="#fff" d="M0 0h600v600H0z"/></clipPath></defs></svg>
